packages/components/src/telekom/icons/home/reduced-wifi/default.svg

<?xml version="1.0" encoding="UTF-8"?>
<svg width="24px" height="24px" viewBox="0 0 24 24" version="1.1" xmlns="http://www.w3.org/2000/svg" xmlns:xlink="http://www.w3.org/1999/xlink">
    <title>/svg/icon/home/reduced-wifi/default</title>
    <g id="icon/home/reduced-wifi/default" stroke="none" stroke-width="1" fill="none" fill-rule="evenodd">
        <path d="M12,18 C13.1045695,18 14,18.8954305 14,20 C14,21.1045695 13.1045695,22 12,22 C10.8954305,22 9.99999999,21.1045695 9.99999999,20 C9.99999999,18.8954305 10.8954305,18 12,18 Z M17.5005,3.49999996 C17.88,3.49999996 18.1939584,3.78191316 18.2436493,4.14816924 L18.2505,4.24999997 L18.2505,13 L21.427,13 L17.5,19 L13.573,13 L16.7505,13 L16.7505,4.24999997 C16.7505,3.83549997 17.0865,3.49999996 17.5005,3.49999996 Z M12.112,13.507 L13.62,15.8105 C11.4817742,14.9821129 9.21664931,15.88255 8.13379593,17.6983944 L8.02949998,17.883 L6.59299998,16.3935 C7.72339998,14.70198 9.62333599,13.5615768 11.8340724,13.5079981 L12.112,13.507 Z M12,8.99999999 C12.9905,8.99999999 13.9496094,9.13321874 14.8622549,9.37955858 L15.2505,9.49199999 L15.2505,11.6115 C14.2425,11.2185 13.1475,11 12,11 C9.17657142,11 6.66371171,12.30597 5.01419829,14.3413718 L4.83449997,14.5705 L3.42699996,13.111 C5.44349997,10.605 8.53349999,8.99999999 12,8.99999999 Z M12,4.49999997 C12.9561429,4.49999997 13.8909796,4.58926528 14.7988426,4.75583087 L15.2505,4.84549997 L15.2505,6.89899998 C14.209,6.64099998 13.1215,6.49999997 12,6.49999997 C7.98545453,6.49999997 4.3818255,8.25415242 1.90899314,11.0361943 L1.68049996,11.3 L0.286999951,9.85499999 C3.12899996,6.57649998 7.32049998,4.49999997 12,4.49999997 Z M19.7505,6.58249998 C21.1105,7.37113634 22.3419876,8.35688015 23.4006353,9.50517091 L23.713,9.85449999 L22.3195,11.2995 C21.6628125,10.521625 20.9188438,9.82031249 20.1040069,9.20762108 L19.7505,8.95049999 L19.7505,6.58249998 Z" id="Icon" fill="#000000"></path>
    </g>
</svg>

<svg width="24" height="24" xmlns="http://www.w3.org/2000/svg"><path d="M12 18a2 2 0 110 4 2 2 0 010-4zm5.5-14.5a.75.75 0 01.744.648l.006.102V13h3.177L17.5 19l-3.927-6h3.177V4.25a.75.75 0 01.75-.75zm-5.388 10.007l1.508 2.303a4.478 4.478 0 00-5.486 1.888l-.105.185-1.436-1.49a6.465 6.465 0 015.241-2.885l.278-.001zM12 9c.99 0 1.95.133 2.862.38l.389.112v2.12a8.97 8.97 0 00-10.236 2.73l-.18.228-1.408-1.459A10.977 10.977 0 0112 9zm0-4.5c.956 0 1.891.09 2.799.256l.452.09v2.053a13.463 13.463 0 00-13.342 4.137l-.229.264L.287 9.855A15.459 15.459 0 0112 4.5zm7.75 2.082a15.625 15.625 0 013.65 2.923l.313.35-1.393 1.444a13.588 13.588 0 00-2.216-2.091l-.354-.258V6.582z" fill-rule="evenodd"/></svg>
